X:333
T: Vor Liebchens Tr (72a), S.2o6,
N: T0222V
O: Luxemburg
S: Singendes Volk, Esch-Alzette 1937 posth.]
N: 2. Melodie
R: Liebeslieder]
M: 2/4
L: 1/8
K: G
BB | A3B | c2e2 | e2d2 | B2
de | d2c2 | A2
ee | e2d2 | gB
BB | A3B | c2e2 | e2d2 | B2
dd | e3d | c2d2 | B2

@@@ Tune index: 8387
